icons/modern/face-in-clouds.svg

<svg width="32" height="32" viewBox="0 0 32 32" fill="none" xmlns="http://www.w3.org/2000/svg">
<g clip-path="url(#clip0_30_40)">
<g filter="url(#filter0_i_30_40)">
<path d="M15.9989 29.9978C25.3333 29.9978 29.9978 23.7303 29.9978 15.9989C29.9978 8.26751 25.3333 2 15.9989 2C6.66443 2 2 8.26751 2 15.9989C2 23.7303 6.66443 29.9978 15.9989 29.9978Z" fill="url(#paint0_radial_30_40)"/>
</g>
<path d="M15 14.5C15 16.9853 12.9853 19 10.5 19C8.01472 19 6 16.9853 6 14.5C6 12.0147 8.01472 10 10.5 10C12.9853 10 15 12.0147 15 14.5Z" fill="white"/>
<path d="M26 14.5C26 16.9853 23.9853 19 21.5 19C19.0147 19 17 16.9853 17 14.5C17 12.0147 19.0147 10 21.5 10C23.9853 10 26 12.0147 26 14.5Z" fill="white"/>
<path d="M11 18C12.6569 18 14 16.6569 14 15C14 13.3431 12.6569 12 11 12C9.34315 12 8 13.3431 8 15C8 16.6569 9.34315 18 11 18Z" fill="url(#paint1_linear_30_40)"/>
<path d="M21 18C22.6569 18 24 16.6569 24 15C24 13.3431 22.6569 12 21 12C19.3431 12 18 13.3431 18 15C18 16.6569 19.3431 18 21 18Z" fill="url(#paint2_linear_30_40)"/>
<circle cx="29" cy="27" r="7" fill="url(#paint3_radial_30_40)"/>
<g filter="url(#filter1_f_30_40)">
<path fill-rule="evenodd" clip-rule="evenodd" d="M26.1143 20.6206C26.9942 20.222 27.9712 20 29 20C31.6432 20 33.9442 21.465 35.1354 23.6273C34.1662 24.4817 32.8936 25 31.5 25C28.8464 25 26.6318 23.1208 26.1143 20.6206Z" fill="#BAA6BA"/>
</g>
<circle cx="32.5" cy="19.5" r="5.5" fill="url(#paint4_linear_30_40)"/>
<g filter="url(#filter2_f_30_40)">
<circle cx="32.5" cy="19.5" r="5.25" stroke="url(#paint5_radial_30_40)" stroke-width="0.5"/>
</g>
<circle cx="6" cy="28" r="8" fill="url(#paint6_linear_30_40)"/>
<g filter="url(#filter3_f_30_40)">
<path fill-rule="evenodd" clip-rule="evenodd" d="M10.8397 29.2183C10.6208 28.6889 10.5 28.1085 10.5 27.5C10.5 25.0147 12.5147 23 15 23C17.0305 23 18.747 24.3449 19.3071 26.1925C23.1334 27.0209 26 30.4257 26 34.5C26 39.1944 22.1944 43 17.5 43C12.8056 43 9 39.1944 9 34.5C9 32.504 9.68797 30.6687 10.8397 29.2183Z" fill="#AC8CC6"/>
</g>
<circle cx="15.5" cy="25.5" r="4.5" fill="url(#paint7_radial_30_40)"/>
<circle cx="0.5" cy="20.5" r="5.5" fill="url(#paint8_linear_30_40)"/>
<g filter="url(#filter4_f_30_40)">
<circle cx="0.5" cy="20.5" r="5.25" stroke="url(#paint9_radial_30_40)" stroke-width="0.5"/>
</g>
<circle cx="19.5" cy="32.5" r="8.5" fill="url(#paint10_linear_30_40)"/>
<circle cx="29" cy="4" r="7" fill="url(#paint11_radial_30_40)"/>
<circle cx="6.5" cy="2.5" r="7.5" fill="url(#paint12_radial_30_40)"/>
<g filter="url(#filter5_f_30_40)">
<path fill-rule="evenodd" clip-rule="evenodd" d="M12.3342 6.36951C13.0708 5.26107 13.5 3.93066 13.5 2.50001C13.5 1.21769 13.1552 0.015898 12.5532 -1.0177L11 -0.499951C11.6667 4.8995e-05 12.9 1.50005 12.5 3.50005C12.2362 4.81891 12.2479 5.77539 12.3342 6.36951Z" fill="#9A7FA9"/>
</g>
<g filter="url(#filter6_f_30_40)">
<path fill-rule="evenodd" clip-rule="evenodd" d="M35.6853 6.08197C34.7989 8.93125 32.1411 11 29.0001 11C28.27 11 27.566 10.8882 26.9043 10.6809C28.303 7.90449 31.1791 6 34.5 6C34.9023 6 35.2979 6.02794 35.6853 6.08197Z" fill="#BAA8C4"/>
</g>
<circle cx="36.5" cy="11.5" r="8.5" fill="url(#paint13_linear_30_40)"/>
<circle opacity="0.08" cx="36.5" cy="11.5" r="8.375" stroke="url(#paint14_radial_30_40)" stroke-width="0.25"/>
<g filter="url(#filter7_f_30_40)">
<circle cx="36.5" cy="11.5" r="8.25" stroke="url(#paint15_radial_30_40)" stroke-width="0.5"/>
</g>
<circle cx="19.5" cy="-0.5" r="6.5" fill="url(#paint16_radial_30_40)"/>
<circle cx="-2" cy="10" r="7" fill="url(#paint17_linear_30_40)"/>
<g opacity="0.8" filter="url(#filter8_f_30_40)">
<circle cx="3" cy="6" r="3" fill="white"/>
</g>
<g opacity="0.8" filter="url(#filter9_f_30_40)">
<ellipse cx="27.1357" cy="29.507" rx="2" ry="3.52487" transform="rotate(-15 27.1357 29.507)" fill="white"/>
</g>
<g filter="url(#filter10_f_30_40)">
<ellipse cx="0.5" cy="26" rx="2.5" ry="1" fill="#AC84D3"/>
</g>
</g>
<defs>
<filter id="filter0_i_30_40" x="2" y="0" width="29.9978" height="29.9978" filterUnits="userSpaceOnUse" color-interpolation-filters="sRGB">
<feFlood flood-opacity="0" result="BackgroundImageFix"/>
<feBlend mode="normal" in="SourceGraphic" in2="BackgroundImageFix" result="shape"/>
<feColorMatrix in="SourceAlpha" type="matrix" values="0 0 0 0 0 0 0 0 0 0 0 0 0 0 0 0 0 0 127 0" result="hardAlpha"/>
<feOffset dx="2" dy="-2"/>
<feGaussianBlur stdDeviation="2"/>
<feComposite in2="hardAlpha" operator="arithmetic" k2="-1" k3="1"/>
<feColorMatrix type="matrix" values="0 0 0 0 0 0 0 0 0 0 0 0 0 0 0 0 0 0 0.08 0"/>
<feBlend mode="normal" in2="shape" result="effect1_innerShadow_30_40"/>
</filter>
<filter id="filter1_f_30_40" x="24.1143" y="18" width="13.0212" height="9" filterUnits="userSpaceOnUse" color-interpolation-filters="sRGB">
<feFlood flood-opacity="0" result="BackgroundImageFix"/>
<feBlend mode="normal" in="SourceGraphic" in2="BackgroundImageFix" result="shape"/>
<feGaussianBlur stdDeviation="1" result="effect1_foregroundBlur_30_40"/>
</filter>
<filter id="filter2_f_30_40" x="25.5" y="12.5" width="14" height="14" filterUnits="userSpaceOnUse" color-interpolation-filters="sRGB">
<feFlood flood-opacity="0" result="BackgroundImageFix"/>
<feBlend mode="normal" in="SourceGraphic" in2="BackgroundImageFix" result="shape"/>
<feGaussianBlur stdDeviation="0.75" result="effect1_foregroundBlur_30_40"/>
</filter>
<filter id="filter3_f_30_40" x="7" y="21" width="21" height="24" filterUnits="userSpaceOnUse" color-interpolation-filters="sRGB">
<feFlood flood-opacity="0" result="BackgroundImageFix"/>
<feBlend mode="normal" in="SourceGraphic" in2="BackgroundImageFix" result="shape"/>
<feGaussianBlur stdDeviation="1" result="effect1_foregroundBlur_30_40"/>
</filter>
<filter id="filter4_f_30_40" x="-5.5" y="14.5" width="12" height="12" filterUnits="userSpaceOnUse" color-interpolation-filters="sRGB">
<feFlood flood-opacity="0" result="BackgroundImageFix"/>
<feBlend mode="normal" in="SourceGraphic" in2="BackgroundImageFix" result="shape"/>
<feGaussianBlur stdDeviation="0.25" result="effect1_foregroundBlur_30_40"/>
</filter>
<filter id="filter5_f_30_40" x="9" y="-3.0177" width="6.5" height="11.3872" filterUnits="userSpaceOnUse" color-interpolation-filters="sRGB">
<feFlood flood-opacity="0" result="BackgroundImageFix"/>
<feBlend mode="normal" in="SourceGraphic" in2="BackgroundImageFix" result="shape"/>
<feGaussianBlur stdDeviation="1" result="effect1_foregroundBlur_30_40"/>
</filter>
<filter id="filter6_f_30_40" x="24.9043" y="4" width="12.781" height="9" filterUnits="userSpaceOnUse" color-interpolation-filters="sRGB">
<feFlood flood-opacity="0" result="BackgroundImageFix"/>
<feBlend mode="normal" in="SourceGraphic" in2="BackgroundImageFix" result="shape"/>
<feGaussianBlur stdDeviation="1" result="effect1_foregroundBlur_30_40"/>
</filter>
<filter id="filter7_f_30_40" x="26.5" y="1.5" width="20" height="20" filterUnits="userSpaceOnUse" color-interpolation-filters="sRGB">
<feFlood flood-opacity="0" result="BackgroundImageFix"/>
<feBlend mode="normal" in="SourceGraphic" in2="BackgroundImageFix" result="shape"/>
<feGaussianBlur stdDeviation="0.75" result="effect1_foregroundBlur_30_40"/>
</filter>
<filter id="filter8_f_30_40" x="-3" y="0" width="12" height="12" filterUnits="userSpaceOnUse" color-interpolation-filters="sRGB">
<feFlood flood-opacity="0" result="BackgroundImageFix"/>
<feBlend mode="normal" in="SourceGraphic" in2="BackgroundImageFix" result="shape"/>
<feGaussianBlur stdDeviation="1.5" result="effect1_foregroundBlur_30_40"/>
</filter>
<filter id="filter9_f_30_40" x="21.9988" y="23.0626" width="10.2739" height="12.8887" filterUnits="userSpaceOnUse" color-interpolation-filters="sRGB">
<feFlood flood-opacity="0" result="BackgroundImageFix"/>
<feBlend mode="normal" in="SourceGraphic" in2="BackgroundImageFix" result="shape"/>
<feGaussianBlur stdDeviation="1.5" result="effect1_foregroundBlur_30_40"/>
</filter>
<filter id="filter10_f_30_40" x="-4" y="23" width="9" height="6" filterUnits="userSpaceOnUse" color-interpolation-filters="sRGB">
<feFlood flood-opacity="0" result="BackgroundImageFix"/>
<feBlend mode="normal" in="SourceGraphic" in2="BackgroundImageFix" result="shape"/>
<feGaussianBlur stdDeviation="1" result="effect1_foregroundBlur_30_40"/>
</filter>
<radialGradient id="paint0_radial_30_40" cx="0" cy="0" r="1" gradientUnits="userSpaceOnUse" gradientTransform="translate(18.5 9) rotate(123.93) scale(33.1436)">
<stop stop-color="#F8A940"/>
<stop offset="0.394071" stop-color="#F48C50"/>
<stop offset="1" stop-color="#F70A8D"/>
</radialGradient>
<linearGradient id="paint1_linear_30_40" x1="16.5" y1="11" x2="15.5" y2="18" gradientUnits="userSpaceOnUse">
<stop stop-color="#553B3E"/>
<stop offset="1" stop-color="#3D2432"/>
</linearGradient>
<linearGradient id="paint2_linear_30_40" x1="16.5" y1="11" x2="15.5" y2="18" gradientUnits="userSpaceOnUse">
<stop stop-color="#553B3E"/>
<stop offset="1" stop-color="#3D2432"/>
</linearGradient>
<radialGradient id="paint3_radial_30_40" cx="0" cy="0" r="1" gradientUnits="userSpaceOnUse" gradientTransform="translate(29 27) rotate(90) scale(8)">
<stop stop-color="#F4ECFD"/>
<stop offset="1" stop-color="#C3B7C1"/>
</radialGradient>
<linearGradient id="paint4_linear_30_40" x1="32.5" y1="14" x2="32.5" y2="25" gradientUnits="userSpaceOnUse">
<stop stop-color="#BCB1C1"/>
<stop offset="1" stop-color="#C8B3DF"/>
</linearGradient>
<radialGradient id="paint5_radial_30_40" cx="0" cy="0" r="1" gradientUnits="userSpaceOnUse" gradientTransform="translate(28.6176 23.7059) rotate(-56.3099) scale(4.66601)">
<stop stop-color="white"/>
<stop offset="1" stop-color="white" stop-opacity="0"/>
</radialGradient>
<linearGradient id="paint6_linear_30_40" x1="6" y1="20" x2="6" y2="36" gradientUnits="userSpaceOnUse">
<stop stop-color="#F0E2F0"/>
<stop offset="1" stop-color="#D4C4E4"/>
</linearGradient>
<radialGradient id="paint7_radial_30_40" cx="0" cy="0" r="1" gradientUnits="userSpaceOnUse" gradientTransform="translate(17.5 24) rotate(159.444) scale(8.544)">
<stop offset="0.117572" stop-color="#E9E1F0"/>
<stop offset="1" stop-color="#BBA2D3"/>
</radialGradient>
<linearGradient id="paint8_linear_30_40" x1="0.499999" y1="16.1786" x2="-3" y2="25.5" gradientUnits="userSpaceOnUse">
<stop stop-color="#FCFBFD"/>
<stop offset="1" stop-color="#BC96E3"/>
</linearGradient>
<radialGradient id="paint9_radial_30_40" cx="0" cy="0" r="1" gradientUnits="userSpaceOnUse" gradientTransform="translate(5.5 23.5) rotate(-135) scale(4.24264 2.96972)">
<stop stop-color="white"/>
<stop offset="1" stop-color="white" stop-opacity="0"/>
</radialGradient>
<linearGradient id="paint10_linear_30_40" x1="26" y1="30.5" x2="13" y2="34" gradientUnits="userSpaceOnUse">
<stop stop-color="#FFFCFF"/>
<stop offset="1" stop-color="#D3C5E0"/>
</linearGradient>
<radialGradient id="paint11_radial_30_40" cx="0" cy="0" r="1" gradientUnits="userSpaceOnUse" gradientTransform="translate(30 2) rotate(110.854) scale(11.2361 18.9982)">
<stop offset="0.133331" stop-color="#F4EFFB"/>
<stop offset="1" stop-color="#B499C0"/>
</radialGradient>
<radialGradient id="paint12_radial_30_40" cx="0" cy="0" r="1" gradientUnits="userSpaceOnUse" gradientTransform="translate(4 -1) rotate(53.8418) scale(16.1012)">
<stop offset="0.185363" stop-color="#DDDBE0"/>
<stop offset="0.570992" stop-color="#D4C3E1"/>
<stop offset="0.820021" stop-color="#B897CD"/>
</radialGradient>
<linearGradient id="paint13_linear_30_40" x1="36.5" y1="3" x2="36.5" y2="20" gradientUnits="userSpaceOnUse">
<stop stop-color="#EBE9ED"/>
<stop offset="1" stop-color="#BDA7D3"/>
</linearGradient>
<radialGradient id="paint14_radial_30_40" cx="0" cy="0" r="1" gradientUnits="userSpaceOnUse" gradientTransform="translate(30.5 18) rotate(-56.3099) scale(7.2111)">
<stop stop-color="white"/>
<stop offset="1" stop-color="white" stop-opacity="0"/>
</radialGradient>
<radialGradient id="paint15_radial_30_40" cx="0" cy="0" r="1" gradientUnits="userSpaceOnUse" gradientTransform="translate(30.5 18) rotate(-56.3099) scale(7.2111)">
<stop stop-color="white"/>
<stop offset="1" stop-color="white" stop-opacity="0"/>
</radialGradient>
<radialGradient id="paint16_radial_30_40" cx="0" cy="0" r="1" gradientUnits="userSpaceOnUse" gradientTransform="translate(25 -0.500001) rotate(135) scale(11.3137)">
<stop stop-color="#FFFDFF"/>
<stop offset="0.55587" stop-color="#D4CDDB"/>
<stop offset="1" stop-color="#C1AFD1"/>
</radialGradient>
<linearGradient id="paint17_linear_30_40" x1="-2" y1="4.5" x2="-2" y2="17" gradientUnits="userSpaceOnUse">
<stop stop-color="#FCFBFD"/>
<stop offset="1" stop-color="#BC96E3"/>
</linearGradient>
<clipPath id="clip0_30_40">
<path d="M0 4C0 1.79086 1.79086 0 4 0H28C30.2091 0 32 1.79086 32 4V28C32 30.2091 30.2091 32 28 32H4C1.79086 32 0 30.2091 0 28V4Z" fill="white"/>
</clipPath>
</defs>
</svg>

<svg width="32" height="32" fill="none" xmlns="http://www.w3.org/2000/svg"><g clip-path="url(#a)"><g filter="url(#b)"><path d="M15.999 29.998c9.334 0 13.999-6.268 13.999-14 0-7.73-4.665-13.998-14-13.998C6.665 2 2 8.268 2 15.999c0 7.731 4.664 13.999 13.999 13.999Z" fill="url(#c)"/></g><path d="M15 14.5a4.5 4.5 0 1 1-9 0 4.5 4.5 0 0 1 9 0ZM26 14.5a4.5 4.5 0 1 1-9 0 4.5 4.5 0 0 1 9 0Z" fill="#fff"/><path d="M11 18a3 3 0 1 0 0-6 3 3 0 0 0 0 6Z" fill="url(#d)"/><path d="M21 18a3 3 0 1 0 0-6 3 3 0 0 0 0 6Z" fill="url(#e)"/><circle cx="29" cy="27" r="7" fill="url(#f)"/><g filter="url(#g)"><path fill-rule="evenodd" clip-rule="evenodd" d="M26.114 20.62A6.976 6.976 0 0 1 29 20a6.998 6.998 0 0 1 6.135 3.627 5.502 5.502 0 0 1-9.021-3.007Z" fill="#BAA6BA"/></g><circle cx="32.5" cy="19.5" r="5.5" fill="url(#h)"/><g filter="url(#i)"><circle cx="32.5" cy="19.5" r="5.25" stroke="url(#j)" stroke-width=".5"/></g><circle cx="6" cy="28" r="8" fill="url(#k)"/><g filter="url(#l)"><path fill-rule="evenodd" clip-rule="evenodd" d="M10.84 29.218a4.5 4.5 0 1 1 8.467-3.026 8.5 8.5 0 1 1-8.467 3.026Z" fill="#AC8CC6"/></g><circle cx="15.5" cy="25.5" r="4.5" fill="url(#m)"/><circle cx=".5" cy="20.5" r="5.5" fill="url(#n)"/><g filter="url(#o)"><circle cx=".5" cy="20.5" r="5.25" stroke="url(#p)" stroke-width=".5"/></g><circle cx="19.5" cy="32.5" r="8.5" fill="url(#q)"/><circle cx="29" cy="4" r="7" fill="url(#r)"/><circle cx="6.5" cy="2.5" r="7.5" fill="url(#s)"/><g filter="url(#t)"><path fill-rule="evenodd" clip-rule="evenodd" d="M12.334 6.37A6.968 6.968 0 0 0 13.5 2.5a6.967 6.967 0 0 0-.947-3.518L11-.5c.667.5 1.9 2 1.5 4-.264 1.319-.252 2.275-.166 2.87Z" fill="#9A7FA9"/></g><g filter="url(#u)"><path fill-rule="evenodd" clip-rule="evenodd" d="M35.685 6.082a7.003 7.003 0 0 1-8.78 4.599 8.5 8.5 0 0 1 8.78-4.599Z" fill="#BAA8C4"/></g><circle cx="36.5" cy="11.5" r="8.5" fill="url(#v)"/><circle opacity=".08" cx="36.5" cy="11.5" r="8.375" stroke="url(#w)" stroke-width=".25"/><g filter="url(#x)"><circle cx="36.5" cy="11.5" r="8.25" stroke="url(#y)" stroke-width=".5"/></g><circle cx="19.5" cy="-.5" r="6.5" fill="url(#z)"/><circle cx="-2" cy="10" r="7" fill="url(#A)"/><g opacity=".8" filter="url(#B)"><circle cx="3" cy="6" r="3" fill="#fff"/></g><g opacity=".8" filter="url(#C)"><ellipse cx="27.136" cy="29.507" rx="2" ry="3.525" transform="rotate(-15 27.136 29.507)" fill="#fff"/></g><g filter="url(#D)"><ellipse cx=".5" cy="26" rx="2.5" ry="1" fill="#AC84D3"/></g></g><defs><filter id="b" x="2" y="0" width="29.998" height="29.998" filterUnits="userSpaceOnUse" color-interpolation-filters="sRGB"><feFlood flood-opacity="0" result="BackgroundImageFix"/><feBlend in="SourceGraphic" in2="BackgroundImageFix" result="shape"/><feColorMatrix in="SourceAlpha" values="0 0 0 0 0 0 0 0 0 0 0 0 0 0 0 0 0 0 127 0" result="hardAlpha"/><feOffset dx="2" dy="-2"/><feGaussianBlur stdDeviation="2"/><feComposite in2="hardAlpha" operator="arithmetic" k2="-1" k3="1"/><feColorMatrix values="0 0 0 0 0 0 0 0 0 0 0 0 0 0 0 0 0 0 0.08 0"/><feBlend in2="shape" result="effect1_innerShadow_30_40"/></filter><filter id="g" x="24.114" y="18" width="13.021" height="9" filterUnits="userSpaceOnUse" color-interpolation-filters="sRGB"><feFlood flood-opacity="0" result="BackgroundImageFix"/><feBlend in="SourceGraphic" in2="BackgroundImageFix" result="shape"/><feGaussianBlur stdDeviation="1" result="effect1_foregroundBlur_30_40"/></filter><filter id="i" x="25.5" y="12.5" width="14" height="14" filterUnits="userSpaceOnUse" color-interpolation-filters="sRGB"><feFlood flood-opacity="0" result="BackgroundImageFix"/><feBlend in="SourceGraphic" in2="BackgroundImageFix" result="shape"/><feGaussianBlur stdDeviation=".75" result="effect1_foregroundBlur_30_40"/></filter><filter id="l" x="7" y="21" width="21" height="24" filterUnits="userSpaceOnUse" color-interpolation-filters="sRGB"><feFlood flood-opacity="0" result="BackgroundImageFix"/><feBlend in="SourceGraphic" in2="BackgroundImageFix" result="shape"/><feGaussianBlur stdDeviation="1" result="effect1_foregroundBlur_30_40"/></filter><filter id="o" x="-5.5" y="14.5" width="12" height="12" filterUnits="userSpaceOnUse" color-interpolation-filters="sRGB"><feFlood flood-opacity="0" result="BackgroundImageFix"/><feBlend in="SourceGraphic" in2="BackgroundImageFix" result="shape"/><feGaussianBlur stdDeviation=".25" result="effect1_foregroundBlur_30_40"/></filter><filter id="t" x="9" y="-3.018" width="6.5" height="11.387" filterUnits="userSpaceOnUse" color-interpolation-filters="sRGB"><feFlood flood-opacity="0" result="BackgroundImageFix"/><feBlend in="SourceGraphic" in2="BackgroundImageFix" result="shape"/><feGaussianBlur stdDeviation="1" result="effect1_foregroundBlur_30_40"/></filter><filter id="u" x="24.904" y="4" width="12.781" height="9" filterUnits="userSpaceOnUse" color-interpolation-filters="sRGB"><feFlood flood-opacity="0" result="BackgroundImageFix"/><feBlend in="SourceGraphic" in2="BackgroundImageFix" result="shape"/><feGaussianBlur stdDeviation="1" result="effect1_foregroundBlur_30_40"/></filter><filter id="x" x="26.5" y="1.5" width="20" height="20" filterUnits="userSpaceOnUse" color-interpolation-filters="sRGB"><feFlood flood-opacity="0" result="BackgroundImageFix"/><feBlend in="SourceGraphic" in2="BackgroundImageFix" result="shape"/><feGaussianBlur stdDeviation=".75" result="effect1_foregroundBlur_30_40"/></filter><filter id="B" x="-3" y="0" width="12" height="12" filterUnits="userSpaceOnUse" color-interpolation-filters="sRGB"><feFlood flood-opacity="0" result="BackgroundImageFix"/><feBlend in="SourceGraphic" in2="BackgroundImageFix" result="shape"/><feGaussianBlur stdDeviation="1.5" result="effect1_foregroundBlur_30_40"/></filter><filter id="C" x="21.999" y="23.063" width="10.274" height="12.889" filterUnits="userSpaceOnUse" color-interpolation-filters="sRGB"><feFlood flood-opacity="0" result="BackgroundImageFix"/><feBlend in="SourceGraphic" in2="BackgroundImageFix" result="shape"/><feGaussianBlur stdDeviation="1.5" result="effect1_foregroundBlur_30_40"/></filter><filter id="D" x="-4" y="23" width="9" height="6" filterUnits="userSpaceOnUse" color-interpolation-filters="sRGB"><feFlood flood-opacity="0" result="BackgroundImageFix"/><feBlend in="SourceGraphic" in2="BackgroundImageFix" result="shape"/><feGaussianBlur stdDeviation="1" result="effect1_foregroundBlur_30_40"/></filter><radialGradient id="c" cx="0" cy="0" r="1" gradientUnits="userSpaceOnUse" gradientTransform="rotate(123.93 6.854 9.426) scale(33.1436)"><stop stop-color="#F8A940"/><stop offset=".394" stop-color="#F48C50"/><stop offset="1" stop-color="#F70A8D"/></radialGradient><radialGradient id="f" cx="0" cy="0" r="1" gradientUnits="userSpaceOnUse" gradientTransform="matrix(0 8 -8 0 29 27)"><stop stop-color="#F4ECFD"/><stop offset="1" stop-color="#C3B7C1"/></radialGradient><radialGradient id="j" cx="0" cy="0" r="1" gradientUnits="userSpaceOnUse" gradientTransform="rotate(-56.31 36.456 -14.883) scale(4.66601)"><stop stop-color="#fff"/><stop offset="1" stop-color="#fff" stop-opacity="0"/></radialGradient><radialGradient id="m" cx="0" cy="0" r="1" gradientUnits="userSpaceOnUse" gradientTransform="matrix(-8 3 -3 -8 17.5 24)"><stop offset=".118" stop-color="#E9E1F0"/><stop offset="1" stop-color="#BBA2D3"/></radialGradient><radialGradient id="p" cx="0" cy="0" r="1" gradientUnits="userSpaceOnUse" gradientTransform="matrix(-3 -3 2.0999 -2.0999 5.5 23.5)"><stop stop-color="#fff"/><stop offset="1" stop-color="#fff" stop-opacity="0"/></radialGradient><radialGradient id="r" cx="0" cy="0" r="1" gradientUnits="userSpaceOnUse" gradientTransform="matrix(-3.99992 10.50003 -17.75364 -6.76313 30 2)"><stop offset=".133" stop-color="#F4EFFB"/><stop offset="1" stop-color="#B499C0"/></radialGradient><radialGradient id="s" cx="0" cy="0" r="1" gradientUnits="userSpaceOnUse" gradientTransform="rotate(53.842 2.985 3.439) scale(16.1012)"><stop offset=".185" stop-color="#DDDBE0"/><stop offset=".571" stop-color="#D4C3E1"/><stop offset=".82" stop-color="#B897CD"/></radialGradient><radialGradient id="w" cx="0" cy="0" r="1" gradientUnits="userSpaceOnUse" gradientTransform="matrix(4 -6 6 4 30.5 18)"><stop stop-color="#fff"/><stop offset="1" stop-color="#fff" stop-opacity="0"/></radialGradient><radialGradient id="y" cx="0" cy="0" r="1" gradientUnits="userSpaceOnUse" gradientTransform="matrix(4 -6 6 4 30.5 18)"><stop stop-color="#fff"/><stop offset="1" stop-color="#fff" stop-opacity="0"/></radialGradient><radialGradient id="z" cx="0" cy="0" r="1" gradientUnits="userSpaceOnUse" gradientTransform="matrix(-8 8 -8 -8 25 -.5)"><stop stop-color="#FFFDFF"/><stop offset=".556" stop-color="#D4CDDB"/><stop offset="1" stop-color="#C1AFD1"/></radialGradient><linearGradient id="d" x1="16.5" y1="11" x2="15.5" y2="18" gradientUnits="userSpaceOnUse"><stop stop-color="#553B3E"/><stop offset="1" stop-color="#3D2432"/></linearGradient><linearGradient id="e" x1="16.5" y1="11" x2="15.5" y2="18" gradientUnits="userSpaceOnUse"><stop stop-color="#553B3E"/><stop offset="1" stop-color="#3D2432"/></linearGradient><linearGradient id="h" x1="32.5" y1="14" x2="32.5" y2="25" gradientUnits="userSpaceOnUse"><stop stop-color="#BCB1C1"/><stop offset="1" stop-color="#C8B3DF"/></linearGradient><linearGradient id="k" x1="6" y1="20" x2="6" y2="36" gradientUnits="userSpaceOnUse"><stop stop-color="#F0E2F0"/><stop offset="1" stop-color="#D4C4E4"/></linearGradient><linearGradient id="n" x1=".5" y1="16.179" x2="-3" y2="25.5" gradientUnits="userSpaceOnUse"><stop stop-color="#FCFBFD"/><stop offset="1" stop-color="#BC96E3"/></linearGradient><linearGradient id="q" x1="26" y1="30.5" x2="13" y2="34" gradientUnits="userSpaceOnUse"><stop stop-color="#FFFCFF"/><stop offset="1" stop-color="#D3C5E0"/></linearGradient><linearGradient id="v" x1="36.5" y1="3" x2="36.5" y2="20" gradientUnits="userSpaceOnUse"><stop stop-color="#EBE9ED"/><stop offset="1" stop-color="#BDA7D3"/></linearGradient><linearGradient id="A" x1="-2" y1="4.5" x2="-2" y2="17" gradientUnits="userSpaceOnUse"><stop stop-color="#FCFBFD"/><stop offset="1" stop-color="#BC96E3"/></linearGradient><clipPath id="a"><path d="M0 4a4 4 0 0 1 4-4h24a4 4 0 0 1 4 4v24a4 4 0 0 1-4 4H4a4 4 0 0 1-4-4V4Z" fill="#fff"/></clipPath></defs></svg>
